svg/fluentui-system-icons/ic_fluent_folder_arrow_left_32_regular.svg

<svg width="32" height="32" viewBox="0 0 32 32" fill="none" xmlns="http://www.w3.org/2000/svg">
<path d="M4 10C4 7.79086 5.79086 6 8 6H11.5C11.7271 6 11.9474 6.07728 12.1247 6.21913L14.3508 8H24C26.2091 8 28 9.79086 28 12V15.5155C27.383 15.1025 26.7121 14.7638 26 14.5121V12C26 10.8954 25.1046 10 24 10H15.1866L12.1727 12.7399C11.9886 12.9072 11.7488 13 11.5 13H6V22C6 23.1046 6.89543 24 8 24H14.0549C14.1316 24.6935 14.287 25.3632 14.5121 26H8C5.79086 26 4 24.2091 4 22V10ZM6 10V11H11.1134L12.8855 9.389L11.1492 8H8C6.89543 8 6 8.89543 6 10ZM15.5 23C15.5 27.1421 18.8579 30.5 23 30.5C27.1421 30.5 30.5 27.1421 30.5 23C30.5 18.8579 27.1421 15.5 23 15.5C18.8579 15.5 15.5 18.8579 15.5 23ZM27.75 24H20.0607L22.7803 26.7197C23.0732 27.0126 23.0732 27.4874 22.7803 27.7803C22.4874 28.0732 22.0126 28.0732 21.7197 27.7803L17.7197 23.7803C17.4268 23.4874 17.4268 23.0126 17.7197 22.7197L21.7197 18.7197C22.0126 18.4268 22.4874 18.4268 22.7803 18.7197C23.0732 19.0126 23.0732 19.4874 22.7803 19.7803L20.0607 22.5H27.75C28.1642 22.5 28.5 22.8358 28.5 23.25C28.5 23.6642 28.1642 24 27.75 24Z" fill="#212121"/>
</svg>

<svg xmlns="http://www.w3.org/2000/svg" width="32" height="32"><path d="M4 10a4 4 0 0 1 4-4h3.5a1 1 0 0 1 .625.22L14.35 8H24a4 4 0 0 1 4 4v3.515a8.968 8.968 0 0 0-2-1.003V12a2 2 0 0 0-2-2h-8.813l-3.014 2.74a1 1 0 0 1-.673.26H6v9a2 2 0 0 0 2 2h6.055c.077.694.232 1.363.457 2H8a4 4 0 0 1-4-4V10Zm2 0v1h5.113l1.773-1.611L11.149 8H8a2 2 0 0 0-2 2Zm9.5 13a7.5 7.5 0 1 0 15 0 7.5 7.5 0 0 0-15 0Zm12.25 1h-7.69l2.72 2.72a.75.75 0 1 1-1.06 1.06l-4-4a.75.75 0 0 1 0-1.06l4-4a.75.75 0 1 1 1.06 1.06l-2.72 2.72h7.69a.75.75 0 0 1 0 1.5Z"/></svg>
